X:1
T:Thy Word Is a Lamp
T:Thy Word Is a Lamp
T:Hubert Platt Main
T:Frances Jane (Fanny) Crosby, 1883
T:Public Domain Courtesy of the Cyber Hymnal™
C:Hubert Platt Main
Z:Public Domain
Z:Courtesy of the Cyber Hymnal™
%%score ( 1 2 ) ( 3 4 )
L:1/8
Q:1/4=105
M:6/8
K:Eb
V:1 treble 
V:2 treble 
V:3 bass 
V:4 bass 
V:1
 [EG] | [EG]>[DF][EG] [DA]>[DG][DA] | B2 [Ae] [Ge]2 E | E>E[EG] [EB]>[EA][EG] | [DF]3- [DF]2 [EG] | %5
w: 1.~Thy|Word is a lamp to my|feet, O Lord, Thy|Word is a light to my|way; * It|
w: 2.~Thy|Word is a lamp to my|feet, O Lord, And,|trust- ing in Thee as my|all, * What-|
w: 3.~Thy|Word is a lamp to my|feet, O Lord, And|oh, when Thy glor- y I|see, * For|
 [EG]>[DF][EG] [DA][DG][DA] | B2 [Ae] [Ge]2 [Gc] | [Fd]>[Fc][FB] [Ec][DB][E=A] | [DB]3- [DB]2 || %9
w: shines in my soul like a|star by night, And|com- forts and cheers me by|day. *|
w: ev- er of e- vil may|cross my path, I|nev- er, no, nev- er can|fall. *|
w: all the rich bless- ings its|truth has brought, The|praises will I give un- to|Thee. *|
"^Refrain" [EB] | [EB]>[Ec][EB] [F=B]>[F=A][FB] | [Ec]3- [Ec]2 [^Fe] | %12
w: |||
w: O|won- der- ful, won- der- ful|Word, * My|
w: |||
 [Gd][Gc][GB] [^Fc][FB][F=A] | ([GB-]3 [AB]2) [FA] | [EG]>[DF][EG] [DA]>[DG][DA] | %15
w: |||
w: trea- sure, my hope, and my|stay; * Each|prom- ise re- cord- ed de-|
w: |||
 B2 [Ae] [Ge]2 [Ec] | [EB]E[EA] [EG]>[FA][DF] | E3- E2 |] %18
w: |||
w: lights my soul, And|bright- ens each step of my|way. *|
w: |||
V:2
 x | x6 | (EG) x2 E x | E>E x4 | x6 | x6 | (EG) x4 | x6 | x5 || x | x6 | x6 | x6 | x6 | x6 | %15
 (EG) x4 | x E x4 | E3- E2 |] %18
V:3
 [E,B,] | [E,B,]>[A,B,][G,B,] [F,B,]>[F,B,][F,B,] | (G,B,)[E,C] [E,B,]2 [G,B,] | %3
 [A,C]>[A,C][G,B,] [F,C]>[F,C][F,=A,] | B,3- B,2 [E,B,] | [E,B,]>[A,B,][G,B,] [F,B,][F,B,][F,B,] | %6
 (G,B,)[_E,C] [E,B,]2 [=E,B,] | [F,B,]>[F,E][F,D] [F,=A,][F,B,][F,C] | [B,,B,]3- [B,,B,]2 || %9
 [E,G,] | [E,G,]>[E,A,][E,G,] [D,G,]>[D,G,][D,G,] | [C,G,]3- [C,G,]2 [=A,,C] | %12
 [B,,D][C,E][D,D] [D,=A,][D,B,][D,C] | ([G,D-]3 [F,D]2) [B,,B,] | %14
 [E,B,]>[A,B,][G,B,] [F,B,]>[F,B,][F,B,] | (G,B,)[E,C] [E,B,]2 A, | %16
 [G,B,][C,C][F,C] [B,,B,]>[B,,B,][B,,A,] | [E,G,]3- [E,G,]2 |] %18
V:4
 x | x6 | E,2 x4 | x6 | B,3- B,2 x | x6 | =E,2 x4 | x6 | x5 || x | x6 | x6 | x6 | x6 | x6 | %15
 E,2 x2 A, x | x6 | x5 |] %18

